X:7644
T:Traditional (North Highland)
O:england
M:4/4
L:1/8
S:Joseph McDonald 18th Century Collection
R:Reel
K:D
e2 Ad cABA | e2 Ad cAcA | e2 Ad cABG | cAaf e2 d2 | e2 Ad cABG | e2  A>e
a2 A>c | e2 Ad cABG | cAaf e2 d2 |:
cAAd BGGB | cAAd cAae | cAAd BGdB | cAaf e2 d2 :||


